X:1940
T:Bourrée à Francois Vidalenc
C:Repertori 58
M:3/8
L:1/16
K:C
G2|ABAGAd|cGgGgG|fedcdf|e2c2G2|\
ABAGAd|cGgGgG|fedcdB|c4:|
|:c2|defefd|g2e2g2|fedfdf|e2c2c2|\
defefd|g2e2g2|1 fedfda|g4:|2 fedcdB|c4||
%%newpage


